X:278
T:Jolly Tinker
R:reel
M:4/4
L:1/8
K:Ador
~A3B ~G3B|Agaf gedB|~A3B ~G3B|1dBGB dedB:|2dBGB d2(3Bcd|
|:edef ~g2ef|~g2af gedg|edeg ~a2eg|~a2bg aged:|
eaag ed(3Bcd|eaag egd2|eaag efge|dBGB d2(3Bcd|]
eaag eaag|eaag egd2|edef gfge|dBGB d2|]
|:(3Bcd|edgd ed(3Bcd|edgd ~e2(3Bcd|1edgd efge|dBGB d2:|2edef gfge|dBGB d2|]
(3Bcd|eA~A2 ed(3Bcd|edef gefd|eA~A2 efge|dBGB d2(3Bcd|
eA~A2 ed(3Bcd|edef g2fg|eaag efge|dBGB dedB|]
